X:1
T:Title
%%score { ( 1 3 ) | ( 2 4 ) }
L:1/8
M:4/4
K:A
V:1 treble nm="Grand Piano"
V:3 treble 
V:2 bass 
V:4 bass 
V:1
 z4 z2[Q:1/4=106] [CE]>[DF] | [CE]2 [Ec]2 [Ec]2 [CE]>[DF] | [CE]2 [Ec]2 [Ec]2 B>c | d2 B2 G2 F2 | %4
 [CE]6 [CE]>[DF] | [CE]2 [Ec]2 [Ec]2 [CE]>[DF] | [CE]2 [Ec]2 [Ec]2 B>c | %7
 [Fd][Fd] [FB]2 [EA]2 [EG]2 |[M:3/4] [CEA]6 |[M:1/4] c>d |[M:4/4] e2 e2 e2 A>B | %11
 c2 c2 c2 [Ec]>[Ec] | [EB]2 [EG]2 [^DF]2 [DB]2 | [G,E]6 [A,E]>[G,DF] | [A,CE]2 c2 c2 E>A | %15
[M:9/8] z2 e- e z z z3 |[M:4/4] A2 A2 AGFG |[M:3/4] [CA]6 |] %18
V:2
 z4 z2 [A,,A,]>[A,,A,] | [A,,A,]2 [A,,A,]2 [A,,A,]2 [A,,A,]>[A,,A,] | %2
 [A,,A,]2 [A,,A,]2 [A,,A,]2 [E,G,E]>[E,A,E] | [E,B,E]2 [E,G,E]2 [E,B,E]2 [E,G,D]2 | %4
 [A,,A,]6 [A,,A,]>[A,,A,] | [A,,A,]2 [A,,A,]2 [A,,A,]2 [A,,A,]>[A,,A,] | %6
 [A,,A,]2 [A,,A,]2 [A,,A,]2 [E,G,E]>[A,E] | [D,A,][D,A,] [D,D]2 [E,C]2 [E,B,]2 |[M:3/4] [A,,A,]6 | %9
[M:1/4][K:treble] [A,A]>[A,B,A] |[M:4/4] [A,CA]2 [A,CA]2 [A,CA]2 [A,C]>[A,DA] | %11
 [A,EA]2 [A,EA]2 [A,EA]2[K:bass] [A,,A,]>[A,,A,] | [B,,G,]2 [B,,B,]2 [B,,B,]2 [B,,A,]2 | %13
 E,2 E,F, E,D, C,>B,, | A,,2[K:treble] [A,E]2 [A,E]2 [A,C]>[A,CE] |[M:9/8] z2 A z3[K:bass] z3 | %16
[M:4/4] [E,CE]2 [E,CE]2 [E,B,D][E,B,D][E,B,D][E,B,D] |[M:3/4] [A,,A,]6 |] %18
V:3
 x8 | x8 | x8 | x8 | x8 | x8 | x8 | x8 |[M:3/4] x6 |[M:1/4] x2 |[M:4/4] x8 | x8 | x8 | x8 | x8 | %15
[M:9/8] .c3 =G [Fd]2- [Fd][FB][FB] |[M:4/4] x8 |[M:3/4] x6 |] %18
V:4
 x8 | x8 | x8 | x8 | x8 | x8 | x8 | x8 |[M:3/4] x6 |[M:1/4][K:treble] x2 |[M:4/4] x8 | %11
 x6[K:bass] x2 | x8 | x8 | x2[K:treble] x6 | %15
[M:9/8] [A,EA]2 [A,C]- [A,C][K:bass] [D,A,]2- [D,A,][D,B,][D,D] |[M:4/4] x8 |[M:3/4] x6 |] %18

